src/assets/tokens/ONDO.svg

<svg fill="none" height="480" width="480" xmlns="http://www.w3.org/2000/svg" xmlns:xlink="http://www.w3.org/1999/xlink"><clipPath id="a"><path d="m0 0h480v480h-480z"/></clipPath><g clip-path="url(#a)" fill="#06070a"><path d="m257.019 480h-17.019c-132.548 0-240-107.452-240-240s107.452-240 240-240 240 107.452 240 240a241.82 241.82 0 0 1 -2.531 34.963h-33.594a208.341 208.341 0 0 0 2.94-34.963c0-114.221-92.594-206.815-206.815-206.815s-206.815 92.595-206.815 206.815 92.595 206.815 206.815 206.815h123.005c-31.411 18.722-67.448 30.492-105.986 33.185z"/><path d="m408.983 411.259h-168.983c-94.584 0-171.26-76.675-171.26-171.259s76.676-171.26 171.26-171.26 171.259 76.676 171.259 171.26c0 11.972-1.231 23.667-3.575 34.963h-34.071c2.91-11.155 4.461-22.869 4.461-34.963 0-76.256-61.818-138.074-138.074-138.074s-138.074 61.818-138.074 138.074 61.818 138.074 138.074 138.074h197.054a241.91 241.91 0 0 1 -28.071 33.185z"/><path d="m457.72 342.518h-217.72c-56.619 0-102.519-45.899-102.519-102.518s45.9-102.519 102.519-102.519 102.518 45.9 102.518 102.519c0 12.268-2.16 24.045-6.121 34.963h-36.508c6.005-10.258 9.444-22.192 9.444-34.963 0-38.292-31.041-69.333-69.333-69.333s-69.333 31.041-69.333 69.333 31.041 69.333 69.333 69.333h230.452a238.81 238.81 0 0 1 -12.732 33.185z"/></g></svg>

<svg width="480" height="480" viewBox="0 0 480 480" fill="none" xmlns="http://www.w3.org/2000/svg">
<g clip-path="url(#clip0_262_40)">
<path d="M257.019 480H240C107.452 480 0 372.548 0 240C0 107.452 107.452 0 240 0C372.548 0 480 107.452 480 240C480 251.868 479.137 263.543 477.469 274.963H443.875C445.807 263.607 446.815 251.926 446.815 240C446.815 125.779 354.221 33.1852 240 33.1852C125.779 33.1852 33.1852 125.779 33.1852 240C33.1852 354.221 125.779 446.815 240 446.815H363.005C331.594 465.537 295.557 477.307 257.019 480Z" fill="#06070A"></path>
<path d="M408.983 411.259H240C145.416 411.259 68.7407 334.584 68.7407 240C68.7407 145.416 145.416 68.7407 240 68.7407C334.584 68.7407 411.259 145.416 411.259 240C411.259 251.972 410.028 263.667 407.684 274.963H373.613C376.523 263.808 378.074 252.094 378.074 240C378.074 163.744 316.256 101.926 240 101.926C163.744 101.926 101.926 163.744 101.926 240C101.926 316.256 163.744 378.074 240 378.074H437.054C428.702 389.971 419.3 401.078 408.983 411.259Z" fill="#06070A"></path>
<path d="M457.72 342.518H240C183.381 342.518 137.481 296.619 137.481 240C137.481 183.381 183.381 137.481 240 137.481C296.619 137.481 342.518 183.381 342.518 240C342.518 252.268 340.358 264.045 336.397 274.963H299.889C305.894 264.705 309.333 252.771 309.333 240C309.333 201.708 278.292 170.667 240 170.667C201.708 170.667 170.667 201.708 170.667 240C170.667 278.292 201.708 309.333 240 309.333H470.452C467.014 320.777 462.747 331.862 457.72 342.518Z" fill="#06070A"></path>
</g>
<defs>
<clipPath id="clip0_262_40">
<rect width="480" height="480" fill="white"></rect>
</clipPath>
</defs>
</svg>
